X:128
T:My bosom burns
Z:Jack Campin - http://www.campin.me.uk
S:Blaikie MS (NLS MS.1578) p38, Blaikie #122
M:C
L:1/8
V:1 midi program 1 74
V:2 midi program 1 46 bass middle = d transpose -24
Q:1/4=90
K:G
[V:1] G2G2 B2AG|FGA2 A4  |G3 A B3 c|dcBA B2A2||
[V:2] G2g2 G2g2|d2D2 d2z2|b2a2 g2e2|c2d2 g2d2||
%
[V:1] [M:3/4] d2 Bc dB|c2 AB cA|B>G B2 A2|G4 z2|]
[V:2] [M:3/4] G2 g2 g2|D2 d2 d2|G2  d2 D2|G4 z2|]
W:Transcription (c) Jack Campin 2009, no mirroring or republication without permission

